X: 25592
T: Marmalade, The
R: polka
M: 2/4
K: Gmajor
D|:"G"GG G/A/B/c/|dd de/d/|"C"cc cd/c/|"G"BB B>A|
"G"GG G/A/B/c/|dd de/d/|"C"cA "D"AF|1 "G"AG GD:|2 "G"AG Gd||
|:"G"ed BG|"D"GF Fd|ed cA|"G"AG GB/d/|
"G"gg ga/g/|"C"fe e>e|"D"dB/d/ c/A/F/G/|1 "G"AG Gd:|2 "G"AG GD||

